resources/svg/linux-alt-o.svg

<svg xmlns="http://www.w3.org/2000/svg" viewBox="0 0 15 15" fill="none"><path d="M2.50001 9.66204C2.50001 8.90433 2.72429 8.16358 3.14459 7.53312L3.70966 6.68553C4.2315 5.90276 4.59494 5.02534 4.77944 4.10284L5.10778 2.46116C5.33584 1.32083 6.33709 0.5 7.50001 0.5C8.66292 0.5 9.66418 1.32083 9.89224 2.46116L10.2206 4.10284C10.4051 5.02534 10.7685 5.90276 11.2904 6.68553L11.8554 7.53312C12.2757 8.16358 12.5 8.90433 12.5 9.66204M5.10778 13.2986C5.49396 13.4292 5.9077 13.5 6.33797 13.5H8.66205C9.09232 13.5 9.50606 13.4292 9.89224 13.2986M6.50001 5.5L4.94722 8.60557C4.6657 9.16863 4.6657 9.83137 4.94722 10.3944C5.28601 11.072 5.97853 11.5 6.73608 11.5H8.26394C9.02149 11.5 9.71401 11.072 10.0528 10.3944C10.3343 9.83137 10.3343 9.16863 10.0528 8.60557L8.50001 5.5M6.50001 3V4.5M8.50001 3V4.5M6.60558 4.44721L5.50001 5L6.0858 5.58579C6.86684 6.36684 8.13318 6.36683 8.91422 5.58579L9.50001 5L8.39444 4.44721C7.83138 4.16569 7.16864 4.16569 6.60558 4.44721ZM0.76982 11.3255L1.24857 10.1286C1.40043 9.74895 1.76814 9.5 2.17704 9.5H3.34061C3.74064 9.5 4.10218 9.7384 4.25976 10.1061L5.19042 12.2776C5.37211 12.7016 5.24027 13.1948 4.87128 13.4715L4.13267 14.0255C3.76186 14.3036 3.24856 14.2905 2.89248 13.9937L1.05811 12.4651C0.725319 12.1878 0.608934 11.7277 0.76982 11.3255ZM14.2302 11.3255L13.7515 10.1286C13.5996 9.74895 13.2319 9.5 12.823 9.5H11.6594C11.2594 9.5 10.8978 9.7384 10.7403 10.1061L9.8096 12.2776C9.6279 12.7016 9.75975 13.1948 10.1287 13.4715L10.8674 14.0255C11.2382 14.3036 11.7515 14.2905 12.1075 13.9937L13.9419 12.4651C14.2747 12.1878 14.3911 11.7277 14.2302 11.3255Z" stroke="black"/></svg>

<svg xmlns="http://www.w3.org/2000/svg" viewBox="0 0 15 15" fill="none"><path d="M2.5 9.662c0-.758.224-1.498.645-2.129l.565-.847a7.203 7.203 0 001.07-2.583l.328-1.642a2.44 2.44 0 014.784 0l.329 1.642a7.18 7.18 0 001.07 2.583l.564.847c.42.63.645 1.371.645 2.129m-7.392 3.637c.386.13.8.201 1.23.201h2.324c.43 0 .844-.07 1.23-.201M6.5 5.5L4.947 8.606a2 2 0 001.79 2.894h1.527a2 2 0 001.789-2.894L8.5 5.5M6.5 3v1.5m2-1.5v1.5m-1.894-.053L5.5 5l.586.586a2 2 0 002.828 0L9.5 5l-1.106-.553a2 2 0 00-1.788 0zM.77 11.325l.479-1.196a1 1 0 01.928-.629h1.164a1 1 0 01.919.606l.93 2.172a1 1 0 01-.319 1.194l-.738.553a1 1 0 01-1.24-.031l-1.835-1.529a1 1 0 01-.288-1.14zm13.46 0l-.479-1.196a1 1 0 00-.928-.629h-1.164a1 1 0 00-.919.606l-.93 2.172a1 1 0 00.319 1.194l.738.553a1 1 0 001.24-.031l1.835-1.529a1 1 0 00.288-1.14z" stroke="currentColor"/></svg>
